docs/img/icon-users.svg

<svg width="34" height="26" viewBox="0 0 34 26" fill="none" xmlns="http://www.w3.org/2000/svg">
<circle cx="5.44681" cy="5.44681" r="5.44681" transform="matrix(-1 0 0 1 22.7875 1.00024)" stroke="white" stroke-width="2"/>
<path d="M7.80859 19.9753C7.80859 18.8037 8.54508 17.7587 9.64838 17.3646V17.3646C14.6226 15.5881 20.0584 15.5881 25.0326 17.3646V17.3646C26.1359 17.7587 26.8724 18.8037 26.8724 19.9753V21.7666C26.8724 23.3835 25.4403 24.6256 23.8396 24.3969L23.3059 24.3207C19.3491 23.7554 15.3319 23.7554 11.3751 24.3207L10.8414 24.3969C9.2407 24.6256 7.80859 23.3835 7.80859 21.7666V19.9753Z" stroke="white" stroke-width="2"/>
<path d="M25.5107 12.0446C27.8742 12.0446 29.7903 10.1286 29.7903 7.76498C29.7903 5.40141 27.8742 3.48535 25.5107 3.48535" stroke="white" stroke-width="2" stroke-linecap="round"/>
<path d="M30.1977 21.8083L30.617 21.8682C31.8747 22.0479 32.9999 21.072 32.9999 19.8015V18.3941C32.9999 17.4736 32.4212 16.6524 31.5544 16.3428C30.6896 16.034 29.8072 15.7935 28.9148 15.6213" stroke="white" stroke-width="2" stroke-linecap="round"/>
<path d="M8.48935 12.0446C6.12577 12.0446 4.20972 10.1286 4.20972 7.76498C4.20972 5.40141 6.12577 3.48535 8.48935 3.48535" stroke="white" stroke-width="2" stroke-linecap="round"/>
<path d="M3.80233 21.8083L3.38301 21.8682C2.12533 22.0479 1.0001 21.072 1.0001 19.8015V18.3941C1.0001 17.4736 1.57877 16.6524 2.44565 16.3428C3.31036 16.034 4.19284 15.7935 5.08521 15.6213" stroke="white" stroke-width="2" stroke-linecap="round"/>
</svg>

<svg xmlns="http://www.w3.org/2000/svg" width="34" height="26" fill="none"><circle cx="5.447" cy="5.447" r="5.447" stroke="#fff" stroke-width="2" transform="matrix(-1 0 0 1 22.788 1)"/><path stroke="#fff" stroke-width="2" d="M7.809 19.975c0-1.171.736-2.216 1.84-2.61a22.87 22.87 0 0 1 15.384 0 2.77 2.77 0 0 1 1.84 2.61v1.792a2.657 2.657 0 0 1-3.033 2.63l-.534-.076a42.2 42.2 0 0 0-11.93 0l-.535.076a2.657 2.657 0 0 1-3.032-2.63z"/><path stroke="#fff" stroke-linecap="round" stroke-width="2" d="M25.51 12.045a4.28 4.28 0 0 0 0-8.56m4.688 18.323.419.06A2.088 2.088 0 0 0 33 19.802v-1.408c0-.92-.579-1.742-1.446-2.051a18 18 0 0 0-2.64-.722M8.49 12.045a4.28 4.28 0 1 1 0-8.56M3.802 21.808l-.419.06A2.088 2.088 0 0 1 1 19.802v-1.408c0-.92.579-1.742 1.446-2.051.864-.309 1.747-.55 2.64-.722"/></svg>
